data/styles/clear/style-clear/symbols/garden-m.svg

<svg height="24" viewBox="0 0 24 24" width="24"><g fill="none" fill-rule="evenodd"><circle cx="12" cy="12" fill="#fff" opacity=".6" r="12"/><circle cx="12" cy="12" fill="#507f34" r="11"/><path d="m8.18181818 5v2.69230769c0 1.77733231 1.54545455 2.74699381 3.31818182 2.69230771v7c-.8863636-1.75-2.77272727-3.7692308-5.5-2.6923077 0 0 1.63636364 4.3076923 6 4.3076923 4.3636364 0 6-4.3076923 6-4.3076923-2.7272727-1.0769231-4.6136364.9423077-5.5 2.6923077v-7c1.7727273.0547077 3.3181818-.9149754 3.3181818-2.69230771v-2.69229692l-2.1818182 2.15383538-1.6363636-2.15384615-1.6363636 2.15384615z" fill="#fff"/></g></svg>

<svg width="24" height="24" viewBox="0 0 24 24">
  <g fill="none" fill-rule="evenodd">
    <circle cx="12" cy="12" r="12" fill="#FFF" opacity=".6"/>
    <circle cx="12" cy="12" r="11" fill="#507F34"/>
    <path fill="#FFF" d="M8.18181818,5 L8.18181818,7.69230769 C8.18181818,9.46964 9.72727273,10.4393015 11.5,10.3846154 L11.5,17.3846154 C10.6136364,15.6346154 8.72727273,13.6153846 6,14.6923077 C6,14.6923077 7.63636364,19 12,19 C16.3636364,19 18,14.6923077 18,14.6923077 C15.2727273,13.6153846 13.3863636,15.6346154 12.5,17.3846154 L12.5,10.3846154 C14.2727273,10.4393231 15.8181818,9.46964 15.8181818,7.69230769 L15.8181818,5.00001077 L13.6363636,7.15384615 L12,5 L10.3636364,7.15384615 L8.18181818,5 Z"/>
  </g>
</svg>
